X:3338
L:1/8
Q:1/2=100
M:2/2
K:G
 B2 G4 Bc | d2 G2 d2 G2 | B2 G4 Bc | d4 B4 | c2 A4 cd | e2 A2 c2 A2 | e2 A4 cd | e4 B4 :: 
 G2 g4 fg | agfe dcBc | A2 a4 ga | bagf efga | G2 g4 fg | agfe d2 g2 | fgaf d2 g2 | f4 e4 :|

